static/images/three_flags.svg

<svg height="27.8" viewBox="0 0 76.666 27.8" width="76.666" xmlns="http://www.w3.org/2000/svg" xmlns:xlink="http://www.w3.org/1999/xlink"><clipPath id="a"><path d="m0 0h76.666v27.8h-76.666z"/></clipPath><g clip-path="url(#a)" fill="none" stroke="#000" stroke-linecap="round" stroke-width="3"><path d="m0 0v17.007" transform="translate(35.345 8.939)"/><path d="m20.312 0h-20.312" transform="translate(25.126 26.566)"/></g><path d="m116.577 13.072h-16.342v-9.572h16.343l-4.514 4.825z" fill="#f7931e" transform="translate(-64.89 -2.266)"/><g clip-path="url(#a)" fill="none" stroke="#000" stroke-linecap="round" stroke-width="3"><path d="m116.577 13.072h-16.342v-9.572h16.343l-4.514 4.825z" transform="translate(-64.89 -2.266)"/><path d="m0 0v11.775" transform="translate(8.31 14.361)"/><path d="m14.063 0h-14.063" transform="translate(1.234 26.566)"/></g><path d="m34.88 32.227h-11.316v-6.627h11.316l-3.125 3.34z" fill="#fff" transform="translate(-15.255 -16.572)"/><path d="m34.88 32.227h-11.316v-6.627h11.316l-3.125 3.34z" fill="none" stroke="#000" stroke-linecap="round" stroke-width="3" transform="translate(-15.255 -16.572)"/><g clip-path="url(#a)" fill="none" stroke="#000" stroke-linecap="round" stroke-width="3"><path d="m0 0v11.775" transform="translate(62.474 14.361)"/><path d="m14.063 0h-14.063" transform="translate(55.399 26.566)"/></g><path d="m188.485 32.227h-11.315v-6.627h11.315l-3.125 3.34z" fill="#fff" transform="translate(-114.696 -16.572)"/><g clip-path="url(#a)"><path d="m188.485 32.227h-11.315v-6.627h11.315l-3.125 3.34z" fill="none" stroke="#000" stroke-linecap="round" stroke-width="3" transform="translate(-114.696 -16.572)"/></g></svg>

<svg xmlns="http://www.w3.org/2000/svg" xmlns:xlink="http://www.w3.org/1999/xlink" width="76.666" height="27.8" viewBox="0 0 76.666 27.8">
  <defs>
    <clipPath id="clip-path">
      <rect id="Rectangle_1178" data-name="Rectangle 1178" width="76.666" height="27.8" fill="none"/>
    </clipPath>
  </defs>
  <g id="Group_2565" data-name="Group 2565" transform="translate(0 0)">
    <g id="Group_2521" data-name="Group 2521" transform="translate(0 0)">
      <g id="Group_2520" data-name="Group 2520" clip-path="url(#clip-path)">
        <line id="Line_170" data-name="Line 170" y2="17.007" transform="translate(35.345 8.939)" fill="none" stroke="#000" stroke-linecap="round" stroke-width="3"/>
        <line id="Line_171" data-name="Line 171" x1="20.312" transform="translate(25.126 26.566)" fill="none" stroke="#000" stroke-linecap="round" stroke-width="3"/>
      </g>
    </g>
    <path id="Path_36394" data-name="Path 36394" d="M116.577,13.072H100.235V3.5h16.343l-4.514,4.825Z" transform="translate(-64.89 -2.266)" fill="#f7931e"/>
    <g id="Group_2523" data-name="Group 2523" transform="translate(0 0)">
      <g id="Group_2522" data-name="Group 2522" clip-path="url(#clip-path)">
        <path id="Path_36395" data-name="Path 36395" d="M116.577,13.072H100.235V3.5h16.343l-4.514,4.825Z" transform="translate(-64.89 -2.266)" fill="none" stroke="#000" stroke-linecap="round" stroke-width="3"/>
        <line id="Line_172" data-name="Line 172" y2="11.775" transform="translate(8.31 14.361)" fill="none" stroke="#000" stroke-linecap="round" stroke-width="3"/>
        <line id="Line_173" data-name="Line 173" x1="14.063" transform="translate(1.234 26.566)" fill="none" stroke="#000" stroke-linecap="round" stroke-width="3"/>
      </g>
    </g>
    <path id="Path_36396" data-name="Path 36396" d="M34.88,32.227H23.564V25.6H34.88L31.755,28.94Z" transform="translate(-15.255 -16.572)" fill="#fff"/>
    <path id="Path_36397" data-name="Path 36397" d="M34.88,32.227H23.564V25.6H34.88L31.755,28.94Z" transform="translate(-15.255 -16.572)" fill="none" stroke="#000" stroke-linecap="round" stroke-width="3"/>
    <g id="Group_2525" data-name="Group 2525" transform="translate(0 0)">
      <g id="Group_2524" data-name="Group 2524" clip-path="url(#clip-path)">
        <line id="Line_174" data-name="Line 174" y2="11.775" transform="translate(62.474 14.361)" fill="none" stroke="#000" stroke-linecap="round" stroke-width="3"/>
        <line id="Line_175" data-name="Line 175" x1="14.063" transform="translate(55.399 26.566)" fill="none" stroke="#000" stroke-linecap="round" stroke-width="3"/>
      </g>
    </g>
    <path id="Path_36398" data-name="Path 36398" d="M188.485,32.227H177.17V25.6h11.315L185.36,28.94Z" transform="translate(-114.696 -16.572)" fill="#fff"/>
    <g id="Group_2527" data-name="Group 2527" transform="translate(0 0)">
      <g id="Group_2526" data-name="Group 2526" clip-path="url(#clip-path)">
        <path id="Path_36399" data-name="Path 36399" d="M188.485,32.227H177.17V25.6h11.315L185.36,28.94Z" transform="translate(-114.696 -16.572)" fill="none" stroke="#000" stroke-linecap="round" stroke-width="3"/>
      </g>
    </g>
  </g>
</svg>
